Sources/FrostedUI/Resources/Icons.xcassets/quoteRight20.imageset/quote-right-20.svg

<svg width="20" height="20" viewBox="0 0 20 20" fill="none" xmlns="http://www.w3.org/2000/svg" data-fui-icon="true">
  <path
    d="M5.4082 4.16699C7.45365 4.16701 9.13983 5.78265 9.14941 7.8125C9.26382 9.98286 8.79262 11.5367 7.88965 12.7812C7.00601 13.9991 5.74219 14.8686 4.41309 15.7324C4.12369 15.9205 3.73695 15.8382 3.54883 15.5488C3.36084 15.2596 3.44241 14.8729 3.73145 14.6846C5.07368 13.8123 6.14765 13.0534 6.87793 12.0469C7.13525 11.6922 7.35472 11.2996 7.52441 10.8506C6.92079 11.2562 6.19069 11.4932 5.4082 11.4932C3.35697 11.4932 1.6671 9.86804 1.66699 7.83008C1.66699 5.79204 3.3569 4.16699 5.4082 4.16699ZM14.5752 4.16699C16.6205 4.16712 18.3068 5.78272 18.3164 7.8125C18.4308 9.98279 17.9596 11.5367 17.0566 12.7812C16.173 13.999 14.9091 14.8686 13.5801 15.7324C13.2907 15.9205 12.9029 15.8382 12.7148 15.5488C12.527 15.2595 12.6094 14.8728 12.8984 14.6846C14.2406 13.8123 15.3147 13.0534 16.0449 12.0469C16.3022 11.6922 16.5217 11.2995 16.6914 10.8506C16.0878 11.2562 15.3576 11.4931 14.5752 11.4932C12.5239 11.4932 10.8331 9.86804 10.833 7.83008C10.833 5.79204 12.5239 4.16699 14.5752 4.16699Z"
    fill="currentColor"
  />
</svg>

<svg xmlns="http://www.w3.org/2000/svg" width="20" height="20" fill="none" data-fui-icon="true" viewBox="0 0 20 20"><path fill="currentColor" d="M5.408 4.167c2.046 0 3.732 1.616 3.741 3.646.115 2.17-.356 3.724-1.26 4.968C7.007 14 5.743 14.87 4.414 15.732a.625.625 0 0 1-.682-1.047c1.343-.873 2.417-1.632 3.147-2.638.257-.355.477-.747.646-1.196a3.8 3.8 0 0 1-2.116.642c-2.051 0-3.74-1.625-3.741-3.663s1.69-3.663 3.741-3.663m9.167 0c2.046 0 3.732 1.616 3.741 3.646.115 2.17-.356 3.724-1.26 4.968-.883 1.218-2.147 2.088-3.476 2.951a.626.626 0 0 1-.682-1.047c1.343-.873 2.417-1.632 3.147-2.638.257-.355.477-.748.646-1.196a3.8 3.8 0 0 1-2.116.642c-2.051 0-3.742-1.625-3.742-3.663s1.69-3.663 3.742-3.663"/></svg>
